packages/ui-icons/svg/Solid/remove-link.svg

<svg viewBox="0 0 1920 1920" version="1.1" xmlns="http://www.w3.org/2000/svg">
    <path d="M614.741843,795.026192 C676.673613,795.386261 734.524608,819.990937 777.852843,864.399377 L777.852843,864.399377 L605.980177,1032.07124 C607.420451,1033.3915 610.060953,1035.07181 613.301569,1035.07181 L613.301569,1035.07181 L243.631311,1408.46278 L511.522225,1676.23367 L886.833555,1300.92234 L1055.58563,1142.13216 C1099.87404,1185.34037 1124.47872,1243.31139 1124.84274,1305.12314 C1125.19886,1367.535 1100.95425,1426.22616 1056.54581,1470.6346 L1056.54581,1470.6346 L674.753248,1852.54718 C631.184968,1895.99544 573.21395,1920 511.522225,1920 C449.710478,1920 391.73946,1895.99544 348.291202,1852.54718 L348.291202,1852.54718 L67.4378245,1571.6938 C-22.459261,1481.67669 -22.459261,1335.24886 67.3178016,1245.23176 L67.3178016,1245.23176 L449.230386,863.319172 C493.278758,819.2708 551.489821,795.026192 613.421592,795.026192 L613.421592,795.026192 Z M1379.0471,1501.14439 L1379.0471,1861.21283 L1259.02429,1861.21283 L1259.02429,1501.14439 L1379.0471,1501.14439 Z M1601.44937,1518.70373 L1841.49499,1758.74935 L1756.63887,1843.60548 L1516.59324,1603.55986 L1601.44937,1518.70373 Z M1859.13835,1261.09877 L1859.13835,1381.12158 L1499.06991,1381.12158 L1499.06991,1261.09877 L1859.13835,1261.09877 Z M1245.49772,67.1838618 C1334.67467,-21.9930868 1481.22252,-22.473178 1572.07979,66.2236793 L1572.07979,66.2236793 L1852.81315,346.957034 C1942.35016,438.894508 1941.99009,585.202314 1852.81315,674.499286 L1852.81315,674.499286 L1470.90056,1056.17182 C1427.57233,1099.62008 1369.48129,1123.74467 1307.66954,1123.74467 C1245.97781,1123.74467 1188.00679,1099.62008 1144.55854,1056.17182 L1144.55854,1056.17182 L1314.27079,886.45957 C1311.1502,883.338977 1304.18888,883.338977 1301.18831,886.45957 L1301.18831,886.45957 L1683.10089,504.667008 L1403.2077,236.896117 L1033.65746,618.448633 C1037.13812,614.607903 1037.0181,609.326899 1033.41741,605.606192 L1033.41741,605.606192 L863.70516,775.318447 C773.688051,685.301339 773.688051,538.993532 863.70516,448.976424 L863.70516,448.976424 Z M408.542653,540.961906 L408.542653,660.984717 L68.998121,660.984717 L68.998121,540.961906 L408.542653,540.961906 Z M658.910237,71.0726009 L658.910237,410.49711 L538.767403,410.49711 L538.767403,71.0726009 L658.910237,71.0726009 Z M161.091624,78.4299992 L401.257269,318.475621 L316.401141,403.331749 L76.3555193,163.286127 L161.091624,78.4299992 Z" stroke="none" stroke-width="1" fill-rule="evenodd"/>
</svg>

<svg viewBox="0 0 1920 1920" xmlns="http://www.w3.org/2000/svg">
    <path d="M614.742 795.026c61.932.36 119.783 24.965 163.11 69.373L605.98 1032.071c1.44 1.32 4.081 3 7.322 3l-369.67 373.392 267.89 267.77 375.312-375.31 168.752-158.79c44.288 43.207 68.893 101.178 69.257 162.99.356 62.412-23.889 121.103-68.297 165.512l-381.793 381.912c-43.568 43.448-101.54 67.453-163.23 67.453-61.813 0-119.784-24.005-163.232-67.453L67.438 1571.694c-89.897-90.017-89.897-236.445-.12-326.462L449.23 863.319c44.049-44.048 102.26-68.293 164.192-68.293Zm764.305 706.118v360.069h-120.023v-360.069h120.023Zm222.402 17.56 240.046 240.045-84.856 84.856-240.046-240.045 84.856-84.856Zm257.69-257.605v120.023h-360.07v-120.023h360.07ZM1245.497 67.184c89.177-89.177 235.725-89.657 326.582-.96l280.733 280.733c89.537 91.938 89.177 238.245 0 327.542L1470.9 1056.172c-43.329 43.448-101.42 67.573-163.231 67.573-61.692 0-119.663-24.125-163.111-67.573L1314.27 886.46c-3.12-3.121-10.082-3.121-13.083 0L1683.1 504.667l-279.893-267.77-369.55 381.552c3.48-3.841 3.36-9.122-.24-12.843L863.704 775.318c-90.017-90.017-90.017-236.324 0-326.342ZM408.543 540.962v120.023H68.998V540.962h339.545ZM658.91 71.072v339.425H538.767V71.073H658.91ZM161.092 78.43l240.165 240.046-84.856 84.856L76.356 163.286l84.736-84.856Z" fill-rule="evenodd"/>
</svg>
